X:1
T:Over the Moor to Maggie
R:reel
M:4/4
L:1/8
K:G
~G3A BGBd|efge dBAG|EAAG ABAG|EAAG A2DE|
~G3A BGBd|efge dBAG|EG~G2 BGAG|1 EGGF G2DE:|2 EGGF G2ga|]
~b3g ~a3f|gage d2Bd|eaag abag|eaag a2ga|
bg~g2 af~f2|gage d2Bd|eg~g2 bgag|1 eggf g2ga:|2 eggf g2Bd|]
~e3c d2dB|c2cA B2AG|EAAG ABAG|EAAG ABcd|
~e3c dedB|cA~A2 B2AG|EG~G2 BGAG|1 EGGF G2Bd:|2 EGGF G2DE|]
